X: 495
T:O'Connell's Trip to Parliament
R:reel
D:Conal O'Grada: The Top of Coom
Z:Henrik Norbeck id:hn-reel-523
M:C|
N: Posted to the woodenflute mailing list March 2002
K:Dmix
dcAF G2FG|Adde fded|dcAF G2FG|AFGE FDD2:|
|:~f3a gfed|(3B^cd ef g2fe|1 defg a2ge|a2ge fdde:|2 a2ge a2ge|a2ge
fdde||
"variations"
|:dcAF G2FG|Add^c defe|dcAF ~G3B|A2GE FDD2:|
|:~f3d gfed|^cdef gefe|1 defg afge|fage fdde:|2 defg afge|fage fdd^c||

